web/themes/custom/votegov/img/logo.svg

<svg width="157" height="35" viewBox="0 0 157 35" fill="none" xmlns="http://www.w3.org/2000/svg">
<mask id="mask0_1043_5221" style="mask-type:luminance" maskUnits="userSpaceOnUse" x="0" y="0" width="157" height="35">
<path d="M157 0H0V34.8226H157V0Z" fill="white"/>
</mask>
<g mask="url(#mask0_1043_5221)">
<path d="M102.246 23.2031H102.276C103.681 23.2031 104.819 24.326 104.819 25.7126C104.819 27.0993 103.681 28.2221 102.276 28.2221H102.246C100.841 28.2221 99.7031 27.0993 99.7031 25.7126C99.7031 24.326 100.841 23.2031 102.246 23.2031Z" fill="#103759"/>
<path d="M67.375 10.9221H70.444V5.55859H75.6894V10.9221H79.4304V14.4865H75.6894V22.0915C75.6894 23.5419 76.2024 24.3969 78.2149 24.3969C78.5986 24.3969 79.0769 24.3629 79.4304 24.3033V27.8676C78.6333 28.0548 77.448 28.2164 76.2627 28.2164C72.2326 28.2164 70.444 26.3875 70.444 23.1038V14.4907H67.375V10.9264V10.9221Z" fill="#103759"/>
<path d="M48.4182 10.9219L42.0221 27.8674H36.4276L30.0312 10.9219H35.5653L39.3067 22.5975H39.3711L43.1124 10.9219H48.4224H48.4182Z" fill="#103759"/>
<path d="M48.6484 19.4425C48.6484 14.3938 51.7819 10.5742 57.6654 10.5742C63.5485 10.5742 66.6819 14.33 66.6819 19.3788C66.6819 24.4275 63.5485 28.2131 57.6654 28.2131C51.7819 28.2131 48.6484 24.4573 48.6484 19.4383V19.4425ZM54.019 19.4128C54.019 22.22 55.204 24.368 57.6307 24.368C60.0574 24.368 61.3072 22.2243 61.3072 19.4128C61.3072 16.6013 60.1219 14.4278 57.6955 14.4278C55.2688 14.4278 54.019 16.5758 54.019 19.4128Z" fill="#103759"/>
<path d="M97.0999 25.2187C95.5653 27.0179 93.3887 28.2173 89.8415 28.2173C83.7643 28.2173 80.6953 24.6529 80.6953 19.4425C80.6953 14.2321 83.7341 10.5742 89.3934 10.5742C95.0523 10.5742 97.7075 14.2024 97.7075 18.9066C97.7075 19.5999 97.6773 20.357 97.5782 20.893H86.0011C86.2901 23.0707 87.3763 24.4573 89.9968 24.4573C91.4663 24.4573 92.8113 23.8873 93.867 22.5007L97.0954 25.2144L97.0999 25.2187ZM92.557 17.771C92.3629 15.657 91.5352 14.33 89.3587 14.33C87.1822 14.33 86.2253 15.657 86.0011 17.771H92.557Z" fill="#103759"/>
<path d="M121.739 26.3196C121.739 31.5172 118.42 34.8222 113.696 34.8222C111.08 34.8222 109.101 34.065 107.632 33.1548L108.558 31.5811C109.994 32.5253 111.653 33.1888 113.791 33.1888C117.174 33.1888 119.821 30.7346 119.821 26.2303V23.9334H119.756C118.51 26.2005 116.308 27.6509 113.567 27.6509C108.972 27.6509 106.227 23.8696 106.227 19.2122C106.227 14.5547 109.032 10.582 113.756 10.582C116.627 10.582 118.64 12.092 119.821 14.1719H119.885L119.95 10.9265H121.739V26.3239V26.3196ZM119.89 19.1399C119.89 15.2353 117.752 12.2451 114.019 12.2451C110.287 12.2451 108.149 15.3629 108.149 19.1399C108.149 22.9169 110.157 26.0049 114.019 26.0049C117.881 26.0049 119.89 22.8871 119.89 19.1399Z" fill="#103759"/>
<path d="M124.25 19.3618C124.25 14.5129 127.28 10.5742 132.452 10.5742C137.624 10.5742 140.62 14.5086 140.62 19.3618C140.62 24.2149 137.62 28.179 132.418 28.179C127.215 28.179 124.25 24.2106 124.25 19.3618ZM126.164 19.3958C126.164 23.2706 128.396 26.5457 132.418 26.5457C136.439 26.5457 138.706 23.3004 138.706 19.3958C138.706 15.4911 136.504 12.216 132.452 12.216C128.401 12.216 126.164 15.4614 126.164 19.3958Z" fill="#103759"/>
<path d="M156.999 10.9219L150.107 27.8334H148.098L141.172 10.9219H143.245L149.115 25.5961H149.18L154.986 10.9219H156.995H156.999Z" fill="#103759"/>
<path d="M26.7658 27.9095H0V3.65234H17.0853L16.2405 5.46005H1.83179V26.1018H24.934V10.9172H26.7658V27.9095Z" fill="#103759"/>
<path d="M27.5565 0H21.3413L20.4922 1.82045H26.7073L27.5565 0Z" fill="#DE3245"/>
<path d="M17.0938 9.0978H23.3046L24.1537 7.27734H17.9428L17.0938 9.0978Z" fill="#DE3245"/>
<path d="M18.7891 5.46108H25.0043L25.8533 3.64062H19.6381L18.7891 5.46108Z" fill="#DE3245"/>
<path d="M15.3984 12.7384H21.6093L22.4584 10.918H16.2475L15.3984 12.7384Z" fill="#DE3245"/>
<path d="M13.6953 16.3791H19.9105L20.7596 14.5586H14.5487L13.6953 16.3791Z" fill="#DE3245"/>
<path d="M11.9922 20.0193H18.2073L19.0565 18.2031H12.8413L11.9922 20.0193Z" fill="#DE3245"/>
<path d="M10.2969 23.6564H16.5121L17.3611 21.8359H11.146L10.2969 23.6564Z" fill="#DE3245"/>
<path d="M10.5234 10.918H4.3125L9.28205 21.4919L12.3767 14.8609L10.5234 10.918Z" fill="#103759"/>
</g>
</svg>

<svg version="1.1" id="Layer_1" xmlns="http://www.w3.org/2000/svg" xmlns:xlink="http://www.w3.org/1999/xlink" x="0px" y="0px"
	 viewBox="0 0 157 35" enable-background="new 0 0 157 35" xml:space="preserve">
<path fill="#103759" d="M102.2,23.2L102.2,23.2c1.4,0,2.6,1.1,2.6,2.5c0,1.4-1.1,2.5-2.5,2.5h0c-1.4,0-2.5-1.1-2.5-2.5
	C99.7,24.3,100.8,23.2,102.2,23.2z"/>
<path fill="#103759" d="M67.4,10.9h3.1V5.6h5.2v5.4h3.7v3.6h-3.7v7.6c0,1.5,0.5,2.3,2.5,2.3c0.4,0,0.9,0,1.2-0.1v3.6
	c-0.8,0.2-2,0.3-3.2,0.3c-4,0-5.8-1.8-5.8-5.1v-8.6h-3.1V10.9L67.4,10.9z"/>
<path fill="#103759" d="M48.4,10.9L42,27.9h-5.6L30,10.9h5.5l3.7,11.7h0.1l3.7-11.7H48.4L48.4,10.9z"/>
<path fill="#103759" d="M48.6,19.4c0-5,3.1-8.9,9-8.9c5.9,0,9,3.8,9,8.8c0,5-3.1,8.8-9,8.8C51.8,28.2,48.6,24.5,48.6,19.4L48.6,19.4
	z M54,19.4c0,2.8,1.2,5,3.6,5s3.7-2.1,3.7-5s-1.2-5-3.6-5C55.3,14.4,54,16.6,54,19.4z"/>
<path fill="#103759" d="M97.1,25.2c-1.5,1.8-3.7,3-7.3,3c-6.1,0-9.1-3.6-9.1-8.8s3-8.9,8.7-8.9c5.7,0,8.3,3.6,8.3,8.3
	c0,0.7,0,1.5-0.1,2H86c0.3,2.2,1.4,3.6,4,3.6c1.5,0,2.8-0.6,3.9-2L97.1,25.2L97.1,25.2z M92.6,17.8c-0.2-2.1-1-3.4-3.2-3.4
	c-2.2,0-3.1,1.3-3.4,3.4H92.6z"/>
<path fill="#103759" d="M121.7,26.3c0,5.2-3.3,8.5-8,8.5c-2.6,0-4.6-0.8-6.1-1.7l0.9-1.6c1.4,0.9,3.1,1.6,5.2,1.6c3.4,0,6-2.5,6-7
	v-2.3h-0.1c-1.2,2.3-3.4,3.7-6.2,3.7c-4.6,0-7.3-3.8-7.3-8.4c0-4.7,2.8-8.6,7.5-8.6c2.9,0,4.9,1.5,6.1,3.6h0.1l0.1-3.2h1.8V26.3
	L121.7,26.3z M119.9,19.1c0-3.9-2.1-6.9-5.9-6.9c-3.7,0-5.9,3.1-5.9,6.9s2,6.9,5.9,6.9S119.9,22.9,119.9,19.1z"/>
<path fill="#103759" d="M124.2,19.4c0-4.8,3-8.8,8.2-8.8s8.2,3.9,8.2,8.8c0,4.9-3,8.8-8.2,8.8C127.2,28.2,124.2,24.2,124.2,19.4z
	 M126.2,19.4c0,3.9,2.2,7.1,6.3,7.1c4,0,6.3-3.2,6.3-7.1c0-3.9-2.2-7.2-6.3-7.2C128.4,12.2,126.2,15.5,126.2,19.4z"/>
<path fill="#103759" d="M157,10.9l-6.9,16.9h-2l-6.9-16.9h2.1l5.9,14.7h0.1l5.8-14.7H157L157,10.9z"/>
<path fill="#103759" d="M26.8,27.9H0V3.7h17.1l-0.8,1.8H1.8v20.6h23.1V10.9h1.8V27.9z"/>
<path fill="#DE3245" d="M27.6,0h-6.2l-0.8,1.8h6.2L27.6,0z M17.1,9.1h6.2l0.8-1.8h-6.2L17.1,9.1z M18.8,5.5H25l0.8-1.8h-6.2
	L18.8,5.5z M15.4,12.7h6.2l0.8-1.8h-6.2L15.4,12.7z M13.7,16.4h6.2l0.8-1.8h-6.2L13.7,16.4z M12,20h6.2l0.8-1.8h-6.2L12,20z
	 M10.3,23.7h6.2l0.8-1.8h-6.2L10.3,23.7z"/>
<path fill="#103759" d="M10.5,10.9H4.3l5,10.6l3.1-6.6L10.5,10.9z"/>
</svg>
